64x64/apps/firefox-developer-edition.svg

<svg xmlns="http://www.w3.org/2000/svg" width="64" height="64" version="1">
 <path style="opacity:0.2" d="M 14.3371,24.069652 C 7.7872392,29.13482 4,25.470446 4,34.327104 4,49.610422 16.536027,62 32,62 47.463972,62 60,49.610422 60,34.327104 60,27.21168 57.282662,20.723458 52.817792,15.820751 c 0.09952,-0.0038 -0.417538,-0.401259 -0.684106,-0.302059 1.866534,3.093824 2.94086,6.719368 2.94086,10.596086 0,11.345064 -6.30966,22.584314 -17.654726,22.584314 -7.286864,0.3537 -16.99377,-4.304736 -18.487808,-8.663922 -0.963912,-2.812426 -0.7206,-5.971132 1.901904,-7.719644 1.424458,-0.90423 3.501198,-1.79703 6.786764,-1.901872 C 30.622036,28.439788 29.161684,28.66431 29.017312,28.0667 28.08496,27.811752 26.42995,27.459424 24.144858,25.660968 22.120926,24.068052 21.180892,23.464044 15.282742,23.40895 14.168471,21.263354 14.446317,26.617268 14.3371,24.069652 Z"/>
 <path style="fill:#02bfee" d="m 40.804948,3 c 1.18114,3.1443412 5.452452,7.19946 11.086258,14.415001 4.77129,6.110871 5.318106,12.928837 7.081964,19.058969 L 45.715454,47.884842 30.739942,32.511354 C 30.672702,22.29109 28.21961,11.553669 40.804948,3 Z"/>
 <path style="opacity:0.2;fill:#f4f4f7" d="M 40.804688 3 C 31.766937 9.1425386 30.491751 16.412034 30.511719 23.806641 C 30.617401 16.758395 32.174628 9.8654499 40.804688 4 C 41.985827 7.1443412 46.256819 11.198522 51.890625 18.414062 C 56.453295 24.257742 57.162903 30.743088 58.757812 36.660156 L 58.972656 36.474609 C 57.208798 30.344477 56.661915 23.524933 51.890625 17.414062 C 46.256819 10.198522 41.985827 6.1443412 40.804688 3 z"/>
 <path style="fill:#0086da" d="m 13.538,21.399526 c 1.945071,-1.93003 5.12116,-6.424178 8.910732,-7.669997 -1.018114,5.426646 0.301782,7.151441 0.95875,9.925879 l -6.09088,-1.579118 z"/>
 <circle style="fill:#354bb0" cx="32" cy="33" r="14"/>
 <path style="fill:#5fdffd" d="m 36.43523,23.12941 c -0.19914,0.002 -0.39819,0.009 -0.596962,0.0212 4.054692,1.90338 6.646048,5.976576 6.651942,10.45579 -0.003,6.154196 -4.824218,11.3691 -10.97021,11.686784 1.536824,0.727182 3.215054,0.966082 4.91523,0.970816 6.388438,5.8e-5 11.567344,-5.178734 11.567428,-11.567172 C 48.002716,28.30829 42.823768,23.129342 36.43523,23.1294 Z"/>
 <path id="ellipse841" style="fill:#095cd3" d="M 14.3371,23.069652 C 7.7872392,28.13482 4,24.470446 4,33.327104 4,48.610422 16.536027,61 32,61 47.463972,61 60,48.610422 60,33.327104 60,26.21168 57.282662,19.723457 52.817792,14.820751 c 0.09952,-0.0038 -0.417538,-0.401259 -0.684106,-0.302059 1.866534,3.093824 2.94086,6.719368 2.94086,10.596086 0,11.345064 -6.30966,22.584314 -17.654726,22.584314 -7.286864,0.3537 -16.99377,-4.304736 -18.487808,-8.663922 -0.963912,-2.812426 -0.7206,-5.971132 1.901904,-7.719644 1.424458,-0.90423 3.501198,-1.79703 6.786764,-1.901872 C 30.622036,27.439788 29.161684,27.66431 29.017312,27.0667 28.08496,26.811752 26.42995,26.459424 24.144858,24.660968 22.120926,23.068052 21.180892,22.464044 15.282742,22.40895 14.168471,20.263354 14.446317,25.617268 14.3371,23.069652 Z"/>
 <path style="opacity:0.1" d="M 13.959406,12.521388 C 7.6899162,17.369737 4.3744002,24.804102 4.0327014,33.198772 4.3912248,46.063772 16.135054,56 30.59994,56 45.290744,56 57.199994,45.744346 57.199994,32.599942 c 0,-3.542486 -0.871324,-6.90198 -2.422662,-9.923066 0.1888,1.118968 0.298048,2.264416 0.298048,3.437116 C 55.07538,37.459056 45.877046,46 34.53198,46 27.245116,46.353702 21.76349,42.985704 20.269452,38.626518 19.305541,35.81409 19.62117,34.627362 22.243674,32.87885 c 1.424458,-0.90423 3.430074,-1.516646 6.715638,-1.621488 3.001356,-1.973866 3.231488,-2.732866 3.087116,-3.330476 -0.932352,-0.254948 -3.50359,-1.242174 -5.788682,-3.040632 -2.023936,-1.592914 -5.383002,-4.803242 -11.281152,-4.858336 -1.11427,-2.145595 -0.907971,-4.958915 -1.017188,-7.50653 z"/>
 <path style="fill:#0091eb" d="M 13.959406,11.521388 C 7.6899162,16.369737 4.3744002,23.804102 4.0327014,32.198772 4.3912248,45.063772 16.135054,55 30.59994,55 45.290744,55 57.199994,44.744346 57.199994,31.599942 c 0,-3.542486 -0.871324,-6.90198 -2.422662,-9.923066 0.1888,1.118968 0.298048,2.264416 0.298048,3.437116 C 55.07538,36.459056 45.877046,45 34.53198,45 27.245116,45.353702 21.76349,41.985704 20.269452,37.626518 19.305541,34.81409 19.62117,33.627362 22.243674,31.87885 c 1.424458,-0.90423 3.430074,-1.516646 6.715638,-1.621488 3.001356,-1.973866 3.231488,-2.732866 3.087116,-3.330476 -0.932352,-0.254948 -3.50359,-1.242174 -5.788682,-3.040632 -2.023936,-1.592914 -5.383002,-4.803242 -11.281152,-4.858336 -1.11427,-2.145595 -0.907971,-4.958915 -1.017188,-7.50653 z"/>
 <path style="fill:#5fdffd" d="m 16.511719,25.007812 c -1.905454,-0.04134 -3.510928,0.614812 -4.785157,1.484376 -0.228236,0.228238 1.815639,4.35756 6.074219,4.402344 C 17.406493,37.764078 22.547558,42.787234 26,43.78125 l 1.515624,0.277344 C 23.84605,42.799716 21.228834,40.42398 20.269532,37.625 c -0.963912,-2.812428 -0.649849,-3.997582 1.972656,-5.746094 1.424458,-0.90423 3.429278,-1.516252 6.714844,-1.621094 1.500678,-0.986932 2.31199,-1.67181 2.726562,-2.183594 0.207328,-0.255592 0.315112,-0.466306 0.363282,-0.652342 0.04814,-0.18626 0.0361,-0.346692 0,-0.496094 -4.04561,4.074212 -9.790084,-0.408866 -14.242188,-1.773438 -0.418954,-0.08944 -0.853249,-0.13502 -1.292969,-0.14454 z"/>
 <path style="opacity:0.2;fill:#f4f4f7" d="M 13.958984 11.521484 C 7.6894946 16.369833 4.3749019 23.804549 4.0332031 32.199219 C 4.0381562 32.376951 4.0532238 32.55192 4.0625 32.728516 C 4.5076311 24.527944 7.8075354 17.27855 13.958984 12.521484 C 14.068201 15.069099 13.862293 17.881749 14.976562 20.027344 C 20.874712 20.082438 24.233877 23.293805 26.257812 24.886719 C 28.417287 26.586311 30.786148 27.538226 31.832031 27.855469 C 32.084777 27.466489 32.107814 27.179982 32.046875 26.927734 C 31.114523 26.672786 28.542905 25.685177 26.257812 23.886719 C 24.233877 22.293805 20.874712 19.082438 14.976562 19.027344 C 13.862293 16.881749 14.068201 14.069099 13.958984 11.521484 z M 54.777344 21.677734 C 54.853705 22.130309 54.906709 22.589492 54.955078 23.050781 C 56.322344 25.837077 57.11364 28.898553 57.185547 32.121094 C 57.189743 31.94722 57.199219 31.774523 57.199219 31.599609 C 57.199219 28.057123 56.328682 24.69882 54.777344 21.677734 z M 55.060547 25.748047 C 54.724117 36.774848 45.663341 45 34.53125 45 C 27.244386 45.353702 21.763569 41.986139 20.269531 37.626953 C 20.037322 36.949431 19.883785 36.369021 19.814453 35.849609 C 19.710747 36.605332 19.875543 37.477403 20.269531 38.626953 C 21.763569 42.986139 27.244386 46.353702 34.53125 46 C 45.876316 46 55.076172 37.458345 55.076172 26.113281 C 55.076172 25.990094 55.062923 25.870634 55.060547 25.748047 z"/>
</svg>

<svg xmlns="http://www.w3.org/2000/svg" width="64" height="64" version="1"><path style="opacity:.2" d="M14.337 24.07C7.787 29.135 4 25.47 4 34.327 4 49.61 16.536 62 32 62s28-12.39 28-27.673c0-7.115-2.717-13.604-7.182-18.506.1-.004-.418-.402-.684-.302a20.445 20.445 0 0 1 2.94 10.596c0 11.345-6.31 22.584-17.654 22.584-7.287.354-16.994-4.305-18.488-8.664-.964-2.812-.72-5.971 1.902-7.72 1.424-.904 3.501-1.797 6.787-1.901 3.001-1.974 1.54-1.75 1.396-2.347-.932-.255-2.587-.608-4.872-2.406-2.024-1.593-2.964-2.197-8.862-2.252-1.115-2.146-.837 3.208-.946.66z"/><path style="fill:#02bfee" d="M40.805 3c1.181 3.144 5.452 7.2 11.086 14.415 4.771 6.11 5.318 12.929 7.082 19.059l-13.258 11.41L30.74 32.512C30.673 22.291 28.22 11.554 40.805 3z"/><path style="opacity:.2;fill:#f4f4f7" d="M40.805 3c-9.038 6.143-10.313 13.412-10.293 20.807C30.617 16.758 32.175 9.865 40.805 4c1.18 3.144 5.452 7.199 11.086 14.414 4.562 5.844 5.272 12.33 6.867 18.246l.215-.185c-1.764-6.13-2.311-12.95-7.082-19.06C46.257 10.198 41.986 6.144 40.805 3z"/><path style="fill:#0086da" d="M13.538 21.4c1.945-1.93 5.121-6.425 8.91-7.67-1.017 5.426.303 7.151.96 9.925l-6.091-1.579z"/><circle style="fill:#354bb0" cx="32" cy="33" r="14"/><path style="fill:#5fdffd" d="M36.435 23.13c-.199.001-.398.008-.597.02a11.567 11.567 0 0 1 6.652 10.456c-.003 6.155-4.824 11.37-10.97 11.687 1.537.727 3.215.966 4.915.971 6.389 0 11.568-5.179 11.568-11.567 0-6.389-5.18-11.568-11.568-11.568z"/><path style="fill:#095cd3" d="M14.337 23.07C7.787 28.135 4 24.47 4 33.327 4 48.61 16.536 61 32 61s28-12.39 28-27.673c0-7.115-2.717-13.604-7.182-18.506.1-.004-.418-.402-.684-.302a20.445 20.445 0 0 1 2.94 10.596c0 11.345-6.31 22.584-17.654 22.584-7.287.354-16.994-4.305-18.488-8.664-.964-2.812-.72-5.971 1.902-7.72 1.424-.904 3.501-1.797 6.787-1.901 3.001-1.974 1.54-1.75 1.396-2.347-.932-.255-2.587-.608-4.872-2.406-2.024-1.593-2.964-2.197-8.862-2.252-1.115-2.146-.837 3.208-.946.66z"/><path style="opacity:.1" d="M13.96 12.521C7.69 17.37 4.373 24.804 4.032 33.2 4.39 46.064 16.135 56 30.6 56c14.69 0 26.6-10.256 26.6-23.4 0-3.543-.871-6.902-2.423-9.923a20.62 20.62 0 0 1 .298 3.437C55.075 37.459 45.877 46 34.532 46c-7.287.354-12.769-3.014-14.263-7.373-.963-2.813-.648-4 1.975-5.748 1.424-.904 3.43-1.517 6.715-1.622 3.002-1.974 3.232-2.733 3.087-3.33-.932-.255-3.503-1.242-5.788-3.04-2.024-1.594-5.383-4.804-11.281-4.86-1.115-2.145-.908-4.958-1.018-7.506z"/><path style="fill:#0091eb" d="M13.96 11.521C7.69 16.37 4.373 23.804 4.032 32.2 4.39 45.064 16.135 55 30.6 55c14.69 0 26.6-10.256 26.6-23.4 0-3.543-.871-6.902-2.423-9.923a20.62 20.62 0 0 1 .298 3.437C55.075 36.459 45.877 45 34.532 45c-7.287.354-12.769-3.014-14.263-7.373-.963-2.813-.648-4 1.975-5.748 1.424-.904 3.43-1.517 6.715-1.622 3.002-1.974 3.232-2.733 3.087-3.33-.932-.255-3.503-1.242-5.788-3.04-2.024-1.594-5.383-4.804-11.281-4.86-1.115-2.145-.908-4.958-1.018-7.506z"/><path style="fill:#5fdffd" d="M16.512 25.008c-1.906-.042-3.511.615-4.785 1.484-.229.228 1.815 4.358 6.074 4.403-.395 6.87 4.747 11.892 8.199 12.886l1.516.278c-3.67-1.26-6.287-3.635-7.246-6.434-.964-2.812-.65-3.998 1.972-5.746 1.425-.904 3.43-1.516 6.715-1.621 1.5-.987 2.312-1.672 2.727-2.184.207-.255.315-.466.363-.652a.987.987 0 0 0 0-.496C28 31 22.257 26.516 17.805 25.152a6.918 6.918 0 0 0-1.293-.144z"/><path style="opacity:.2;fill:#f4f4f7" d="M13.959 11.521C7.689 16.37 4.375 23.805 4.033 32.2c.005.178.02.353.03.53.445-8.201 3.745-15.45 9.896-20.208.11 2.548-.097 5.36 1.018 7.506 5.898.055 9.257 3.267 11.28 4.86 2.16 1.7 4.53 2.651 5.575 2.968.253-.389.276-.675.215-.927-.932-.255-3.504-1.243-5.79-3.041-2.023-1.593-5.382-4.805-11.28-4.86-1.115-2.145-.909-4.958-1.018-7.506zm40.818 10.157c.077.452.13.911.178 1.373a21.605 21.605 0 0 1 2.23 9.07c.005-.174.014-.346.014-.521 0-3.543-.87-6.901-2.422-9.922zm.284 4.07C54.724 36.775 45.663 45 34.53 45c-7.287.354-12.767-3.014-14.261-7.373-.233-.678-.386-1.258-.456-1.777-.103.755.062 1.627.456 2.777 1.494 4.36 6.974 7.727 14.261 7.373 11.345 0 20.545-8.542 20.545-19.887 0-.123-.013-.242-.015-.365z"/></svg>
